assets/mcard.svg

<svg width="38" height="22" viewBox="0 0 38 22" fill="none" xmlns="http://www.w3.org/2000/svg">
<mask id="mask0_229_3406" style="mask-type:luminance" maskUnits="userSpaceOnUse" x="0" y="0" width="38" height="22">
<path d="M37.9425 0H0.466797V22H37.9425V0Z" fill="white"/>
</mask>
<g mask="url(#mask0_229_3406)">
<path d="M24.7864 2.35205H13.6367V19.6461H24.7864V2.35205Z" fill="#FF5A00"/>
<path d="M14.7804 11.0007C14.7789 9.33553 15.1767 7.69173 15.9431 6.19385C16.7094 4.69604 17.8243 3.38339 19.2038 2.3552C17.4952 1.08012 15.4435 0.28721 13.283 0.06713C11.1224 -0.15295 8.93975 0.208629 6.98574 1.11058C5.03103 2.01254 3.38328 3.41843 2.23096 5.16765C1.07795 6.91681 0.466797 8.93874 0.466797 11.0023C0.466797 13.0658 1.07795 15.0877 2.23096 16.8369C3.38328 18.5861 5.03103 19.9921 6.98574 20.894C8.93975 21.7959 11.1224 22.1575 13.283 21.9374C15.4435 21.7173 17.4952 20.9244 19.2038 19.6493C17.8236 18.6208 16.7087 17.3077 15.9423 15.8093C15.1759 14.3109 14.7783 12.6665 14.7804 11.0007Z" fill="#EB001B"/>
<path d="M37.9436 11.0006C37.9436 13.0644 37.3324 15.0864 36.1795 16.8357C35.0265 18.5849 33.378 19.9908 31.4233 20.8926C29.4686 21.7944 27.2866 22.1557 25.1254 21.9354C22.9649 21.715 20.9132 20.9217 19.2051 19.6462C20.584 18.6171 21.6983 17.3041 22.4653 15.8062C23.2317 14.3082 23.6301 12.6646 23.6301 10.9991C23.6301 9.33368 23.2317 7.69004 22.4653 6.19216C21.6983 4.6942 20.584 3.38116 19.2051 2.35211C20.9132 1.07663 22.9649 0.283322 25.1254 0.0629109C27.2866 -0.1575 29.4686 0.203878 31.4233 1.1057C33.378 2.00752 35.0265 3.41342 36.1795 5.16264C37.3324 6.91192 37.9436 8.93392 37.9436 10.9976V11.0006Z" fill="#F79E1B"/>
</g>
</svg>

<svg width="38" height="22" fill="none" xmlns="http://www.w3.org/2000/svg"><mask id="a" style="mask-type:luminance" maskUnits="userSpaceOnUse" x="0" y="0" width="38" height="22"><path d="M37.943 0H.467v22h37.476V0Z" fill="#fff"/></mask><g mask="url(#a)"><path d="M24.786 2.352h-11.15v17.294h11.15V2.352Z" fill="#FF5A00"/><path d="M14.78 11a10.523 10.523 0 0 1 1.163-4.806 11.106 11.106 0 0 1 3.26-3.839 11.924 11.924 0 0 0-5.92-2.288 12.12 12.12 0 0 0-6.297 1.044A11.393 11.393 0 0 0 2.23 5.168a10.59 10.59 0 0 0-1.764 5.834c0 2.064.61 4.086 1.764 5.835a11.393 11.393 0 0 0 4.755 4.057 12.12 12.12 0 0 0 6.297 1.043 11.924 11.924 0 0 0 5.92-2.288 11.104 11.104 0 0 1-3.26-3.84 10.522 10.522 0 0 1-1.163-4.808Z" fill="#EB001B"/><path d="M37.944 11c0 2.064-.612 4.086-1.765 5.836a11.4 11.4 0 0 1-4.756 4.057 12.121 12.121 0 0 1-6.298 1.042 11.921 11.921 0 0 1-5.92-2.289 11.13 11.13 0 0 0 3.26-3.84A10.545 10.545 0 0 0 23.63 11c0-1.665-.398-3.309-1.165-4.807a11.13 11.13 0 0 0-3.26-3.84 11.921 11.921 0 0 1 5.92-2.29 12.12 12.12 0 0 1 6.298 1.044 11.4 11.4 0 0 1 4.756 4.057 10.593 10.593 0 0 1 1.765 5.835V11Z" fill="#F79E1B"/></g></svg>
